packages/core/src/svgs/tokens/mono/MKR.svg

<svg width="24" height="24" viewBox="0 0 24 24" fill="none" xmlns="http://www.w3.org/2000/svg">
<path d="M2.2485 6.06795C2.32411 6.02397 2.40994 6.00059 2.49742 6.00015C2.5849 5.9997 2.67095 6.02223 2.747 6.06546L10.7455 10.6154C10.8223 10.659 10.8861 10.7223 10.9306 10.7986C10.975 10.8749 10.9985 10.9617 10.9985 11.05V17.4999C10.9985 17.6325 10.9459 17.7597 10.8521 17.8535C10.7583 17.9472 10.6311 17.9999 10.4984 17.9999C10.3659 17.9999 10.2387 17.9472 10.1449 17.8535C10.0511 17.7597 9.99852 17.6325 9.99852 17.4999V11.3405L2.99999 7.35995V17.4999C2.99999 17.6325 2.94732 17.7597 2.85355 17.8535C2.75979 17.9472 2.63261 17.9999 2.5 17.9999C2.36739 17.9999 2.24022 17.9472 2.14645 17.8535C2.05267 17.7597 2 17.6325 2 17.4999V6.49996C2.00002 6.4125 2.02298 6.32659 2.06659 6.25078C2.11019 6.17498 2.17292 6.11194 2.2485 6.06795ZM21.7515 6.06795C21.6758 6.02388 21.5899 6.00044 21.5023 6.00001C21.4147 5.99956 21.3286 6.02214 21.2525 6.06546L13.2544 10.6154C13.1777 10.659 13.1139 10.7223 13.0694 10.7986C13.025 10.8749 13.0015 10.9617 13.0015 11.05V17.4999C13.0015 17.6325 13.0541 17.7597 13.1479 17.8535C13.2417 17.9472 13.3689 17.9999 13.5014 17.9999C13.6341 17.9999 13.7612 17.9472 13.855 17.8535C13.9488 17.7597 14.0015 17.6325 14.0015 17.4999V11.3405L20.9999 7.35995V17.4999C20.9999 17.6325 21.0527 17.7597 21.1464 17.8535C21.2402 17.9472 21.3673 17.9999 21.5 17.9999C21.6326 17.9999 21.7598 17.9472 21.8535 17.8535C21.9473 17.7597 22 17.6325 22 17.4999V6.49996C21.9999 6.4125 21.977 6.32659 21.9334 6.25078C21.8897 6.17498 21.8271 6.11194 21.7515 6.06795Z" fill="white"/>
</svg>

<svg xmlns="http://www.w3.org/2000/svg" width="24" height="24" fill="none" viewBox="0 0 24 24">
    <path fill="#fff" d="M2.249 6.068a.5.5 0 0 1 .498-.003l7.999 4.55a.5.5 0 0 1 .252.435v6.45a.5.5 0 1 1-1 0v-6.16L3 7.36V17.5a.5.5 0 0 1-1 0v-11a.5.5 0 0 1 .248-.432m19.503 0a.5.5 0 0 0-.5-.003l-7.998 4.55a.5.5 0 0 0-.252.435v6.45a.5.5 0 1 0 1 0v-6.16L21 7.36V17.5a.5.5 0 0 0 1 0v-11a.5.5 0 0 0-.248-.432"/>
</svg>
